jsapp/svg-icons/print.svg

<svg height="40" viewBox="0 0 40 40" width="40" xmlns="http://www.w3.org/2000/svg"><path d="m28 26h-1v-2h-14v2h-1v-7c0-.552.449-1 1-1v2h14v-2c.551 0 1 .448 1 1zm-3 4h-10v-4h10zm5-11c0-1.654-1.346-3-3-3h-2v2h-10v-2h-2c-1.654 0-3 1.346-3 3v9h3v4h14v-4h3zm-15-8h10v4h2v-6h-14v6h2zm10 10c-.552 0-1 .448-1 1 0 .553.448 1 1 1s1-.447 1-1c0-.552-.448-1-1-1" fill-rule="evenodd"/></svg>

<?xml version="1.0" encoding="UTF-8"?>
<svg width="40px" height="40px" viewBox="0 0 40 40" version="1.1" xmlns="http://www.w3.org/2000/svg" xmlns:xlink="http://www.w3.org/1999/xlink">
    <!-- Generator: Sketch 50.2 (55047) - http://www.bohemiancoding.com/sketch -->
    <title>Icons/print</title>
    <desc>Created with Sketch.</desc>
    <defs>
        <path d="M28,26 L27,26 L27,24 L13,24 L13,26 L12,26 L12,19 C12,18.448 12.449,18 13,18 L13,20 L27,20 L27,18 C27.551,18 28,18.448 28,19 L28,26 Z M25,30 L15,30 L15,26 L25,26 L25,30 Z M30,19 C30,17.346 28.654,16 27,16 L25,16 L25,18 L15,18 L15,16 L13,16 C11.346,16 10,17.346 10,19 L10,28 L13,28 L13,32 L27,32 L27,28 L30,28 L30,19 Z M15,11 L25,11 L25,15 L27,15 L27,9 L13,9 L13,15 L15,15 L15,11 Z M25,21 C24.448,21 24,21.448 24,22 C24,22.553 24.448,23 25,23 C25.552,23 26,22.553 26,22 C26,21.448 25.552,21 25,21" id="path-1"></path>
    </defs>
    <g id="Icons/print" stroke="none" stroke-width="1" fill="none" fill-rule="evenodd">
        <mask id="mask-2" fill="white">
            <use xlink:href="#path-1"></use>
        </mask>
        <use id="Print" fill="#000000" xlink:href="#path-1"></use>
    </g>
</svg>
